; generated by PrusaSlicer 2.5.0+win64 on 2024-02-06 at 22:00:12 UTC


;
;
; 

; external perimeters extrusion width = 0.60mm
; perimeters extrusion width = 0.50mm
; infill extrusion width = 0.50mm
; solid infill extrusion width = 0.50mm
; top infill extrusion width = 0.45mm
; first layer extrusion width = 0.42mm

M73 P0 R3
M73 Q0 S3
M201 X1000 Y1000 Z200 E8000 ; sets maximum accelerations, mm/sec^2
M203 X200 Y200 Z12 E120 ; sets maximum feedrates, mm / sec
M204 P1250 R1250 T1250 ; sets acceleration (P, T) and retract acceleration (R), mm/sec^2
M205 X8.00 Y8.00 Z0.40 E4.50 ; sets the jerk limits, mm/sec
M205 S0 T0 ; sets the minimum extruding and travel feed rate, mm/sec
M107
;TYPE:Custom
M862.3 P "MK3SMMU2S" ; printer model check
M862.1 P0.4 ; nozzle diameter check
M115 U3.12.2 ; tell printer latest fw version
G90 ; use absolute coordinates
M83 ; extruder relative mode
M104 S255 ; set extruder temp
M140 S100 ; set bed temp
M190 S100 ; wait for bed temp
M109 S255 ; wait for extruder temp
G28 W ; home all without mesh bed level
G80 ; mesh bed leveling

; Send the filament type to the MMU2.0 unit.
; E stands for extruder number, F stands for filament type (0: default; 1:flex; 2: PVA)
M403 E0 F0
M403 E1 F0
M403 E2 F0
M403 E3 F0
M403 E4 F0


;go outside print area
G1 Y-3 F1000
G1 Z0.4 F1000
; select extruder
T0
; initial load
G1 X55 E29 F1073
G1 X5 E29 F1800
M73 P1 R3
M73 Q1 S3
G1 X55 E8 F2000
M73 P2 R3
M73 Q2 S3
G1 Z0.3 F1000
G92 E0
G1 X240 E25 F2200
G1 Y-2 F1000
M73 P5 R3
M73 Q5 S3
G1 X55 E25 F1400
G1 Z0.2 F1000
M73 P8 R3
M73 Q8 S3
G1 X5 E4 F1000
G92 E0


M221 S95
G92 E0

; Don't change E values below. Excessive value can damage the printer.

M907 E538 ; set extruder motor current
G21 ; set units to millimeters
G90 ; use absolute coordinates
M83 ; use relative distances for extrusion
M900 K0.04 ; Filament gcode LA 1.5
M900 K20 ; Filament gcode LA 1.0
M107
;LAYER_CHANGE
;Z:0.3
;HEIGHT:0.3
;BEFORE_LAYER_CHANGE
G92 E0.0
;0.3


G1 E-.8 F2100
M73 P9 R3
M73 Q9 S3
G1 Z.4 F720
;AFTER_LAYER_CHANGE
;0.3
G1 X42.08 Y100.831 F10800
G1 Z.3 F720
M73 P10 R3
M73 Q10 S3
G1 E.8 F2100
M204 S800
;TYPE:Skirt/Brim
;WIDTH:0.42
G1 F1200
G1 X43 Y100.644 E.04163
G1 X207 Y100.644 E7.27419
G1 X208.3 Y101.036 E.06024
M73 P13 R3
M73 Q13 S3
G1 X209.169 Y102.08 E.06024
G1 X209.356 Y103 E.04163
G1 X209.356 Y107 E.17742
G1 X208.964 Y108.3 E.06024
M73 Q14 S3
G1 X207.92 Y109.169 E.06024
M73 P14 R3
G1 X207 Y109.356 E.04163
G1 X43 Y109.356 E7.27419
G1 X41.7 Y108.964 E.06024
M73 P17 R3
M73 Q17 S3
G1 X40.831 Y107.92 E.06024
G1 X40.644 Y107 E.04163
G1 X40.644 Y103 E.17742
G1 X41.036 Y101.7 E.06024
G1 X42.034 Y100.87 E.05758
M204 S1000
; printing object skinny_garzon-specimen-3L-03height.STL id:0 copy 0
;WIPE_START
G1 F8640
G1 X43 Y100.644 E-.22901
G1 X45.3 Y100.644 E-.53099
;WIPE_END
G1 E-.04 F2100
G1 Z.7 F720
G1 X43.25 Y106.571 F10800
G1 Z.3 F720
M73 Q18 S3
G1 E.8 F2100
M204 S800
;TYPE:Solid infill
;WIDTH:0.45723
M73 P18 R3
G1 F1200
G1 X206.59 Y106.571 E8.00338
G1 X206.59 Y106.179 E.01925
M73 P21 R3
M73 Q21 S3
G1 X43.41 Y106.178 E7.99554
G1 X43.41 Y105.786 E.01925
M73 P25 R2
M73 Q25 S2
G1 X206.59 Y105.786 E7.99554
G1 X206.59 Y105.393 E.01925
M73 P28 R2
M73 Q28 S2
G1 X43.41 Y105.393 E7.99554
G1 X43.41 Y105 E.01925
M73 P32 R2
M73 Q32 S2
G1 X206.59 Y105 E7.99554
G1 X206.59 Y104.607 E.01925
M73 P35 R2
M73 Q35 S2
G1 X43.41 Y104.607 E7.99554
G1 X43.41 Y104.214 E.01925
M73 P39 R2
M73 Q39 S2
G1 X206.59 Y104.214 E7.99554
G1 X206.59 Y103.821 E.01925
M73 P42 R2
M73 Q42 S2
G1 X43.41 Y103.821 E7.99554
G1 X43.41 Y103.429 E.01925
M73 P46 R2
M73 Q46 S2
G1 X206.75 Y103.429 E8.00338
M204 S1000
; stop printing object skinny_garzon-specimen-3L-03height.STL id:0 copy 0
;LAYER_CHANGE
;Z:0.6
;HEIGHT:0.3
;BEFORE_LAYER_CHANGE
G92 E0.0
;0.6


;WIPE_START
G1 F8640
M73 P49 R1
M73 Q49 S1
G1 X203.459 Y103.429 E-.76
;WIPE_END
G1 E-.04 F2100
M73 P50 R1
G1 Z.7 F720
;AFTER_LAYER_CHANGE
;0.6
M140 S110 ; set bed temperature
G1 X203.459 Y100.644 F10800
G1 Z.6 F720
G1 E.8 F2100
;TYPE:Skirt/Brim
;WIDTH:0.42
G1 F2700
G1 X207 Y100.644 E.15708
G1 X208.3 Y101.036 E.06024
M73 Q50 S1
G1 X209.169 Y102.08 E.06024
G1 X209.356 Y103 E.04163
G1 X209.356 Y107 E.17742
G1 X208.964 Y108.3 E.06024
G1 X207.92 Y109.169 E.06024
G1 X207 Y109.356 E.04163
G1 X43 Y109.356 E7.27419
G1 X41.7 Y108.964 E.06024
M73 P51 R1
M73 Q51 S1
G1 X40.831 Y107.92 E.06024
G1 X40.644 Y107 E.04163
G1 X40.644 Y103 E.17742
G1 X41.036 Y101.7 E.06024
G1 X42.08 Y100.831 E.06024
G1 X43 Y100.644 E.04163
M73 P52 R1
G1 X203.399 Y100.644 E7.11445
; printing object skinny_garzon-specimen-3L-03height.STL id:0 copy 0
;WIPE_START
G1 F8640
M73 P53 R1
M73 Q53 S1
G1 X206.69 Y100.644 E-.76
;WIPE_END
G1 E-.04 F2100
G1 Z1 F720
G1 X206.749 Y103.054 F10800
G1 Z.6 F720
G1 E.8 F2100
;TYPE:Solid infill
;WIDTH:0.500379
G1 F4800
G1 X206.749 Y106.75 E.20099
G1 X206.313 Y106.75 E.02371
G1 X206.313 Y103.25 E.19033
G1 X205.877 Y103.25 E.02371
G1 X205.877 Y106.75 E.19033
G1 X205.441 Y106.75 E.02371
G1 X205.441 Y103.25 E.19033
G1 X205.005 Y103.25 E.02371
G1 X205.005 Y106.75 E.19033
G1 X204.569 Y106.75 E.02371
M73 P54 R1
G1 X204.569 Y103.25 E.19033
G1 X204.134 Y103.25 E.02371
G1 X204.134 Y106.75 E.19033
G1 X203.698 Y106.75 E.02371
G1 X203.698 Y103.25 E.19033
M73 Q54 S1
G1 X203.262 Y103.25 E.02371
G1 X203.262 Y106.75 E.19033
G1 X202.826 Y106.75 E.02371
G1 X202.826 Y103.25 E.19033
G1 X202.39 Y103.25 E.02371
G1 X202.39 Y106.75 E.19033
G1 X201.954 Y106.75 E.02371
G1 X201.954 Y103.25 E.19033
G1 X201.518 Y103.25 E.02371
G1 X201.518 Y106.75 E.19033
G1 X201.082 Y106.75 E.02371
G1 X201.082 Y103.25 E.19033
G1 X200.646 Y103.25 E.02371
G1 X200.646 Y106.75 E.19033
G1 X200.21 Y106.75 E.02371
G1 X200.21 Y103.25 E.19033
G1 X199.774 Y103.25 E.02371
G1 X199.774 Y106.75 E.19033
G1 X199.338 Y106.75 E.02371
G1 X199.338 Y103.25 E.19033
G1 X198.902 Y103.25 E.02371
G1 X198.902 Y106.75 E.19033
G1 X198.466 Y106.75 E.02371
G1 X198.466 Y103.25 E.19033
G1 X198.03 Y103.25 E.02371
G1 X198.03 Y106.75 E.19033
G1 X197.594 Y106.75 E.02371
G1 X197.594 Y103.25 E.19033
G1 X197.158 Y103.25 E.02371
G1 X197.158 Y106.75 E.19033
M73 P55 R1
G1 X196.722 Y106.75 E.02371
G1 X196.722 Y103.25 E.19033
G1 X196.286 Y103.25 E.02371
G1 X196.286 Y106.75 E.19033
G1 X195.85 Y106.75 E.02371
M73 Q55 S1
G1 X195.85 Y103.25 E.19033
G1 X195.414 Y103.25 E.02371
G1 X195.414 Y106.75 E.19033
G1 X194.978 Y106.75 E.02371
G1 X194.978 Y103.25 E.19033
G1 X194.542 Y103.25 E.02371
G1 X194.542 Y106.75 E.19033
G1 X194.106 Y106.75 E.02371
G1 X194.106 Y103.25 E.19033
G1 X193.67 Y103.25 E.02371
G1 X193.67 Y106.75 E.19033
G1 X193.234 Y106.75 E.02371
G1 X193.234 Y103.25 E.19033
G1 X192.798 Y103.25 E.02371
G1 X192.798 Y106.75 E.19033
G1 X192.362 Y106.75 E.02371
G1 X192.362 Y103.25 E.19033
G1 X191.926 Y103.25 E.02371
G1 X191.926 Y106.75 E.19033
G1 X191.49 Y106.75 E.02371
G1 X191.49 Y103.25 E.19033
G1 X191.054 Y103.25 E.02371
G1 X191.054 Y106.75 E.19033
G1 X190.618 Y106.75 E.02371
G1 X190.618 Y103.25 E.19033
G1 X190.182 Y103.25 E.02371
G1 X190.182 Y106.75 E.19033
G1 X189.746 Y106.75 E.02371
G1 X189.746 Y103.25 E.19033
G1 X189.31 Y103.25 E.02371
M73 P56 R1
G1 X189.31 Y106.75 E.19033
G1 X188.874 Y106.75 E.02371
G1 X188.874 Y103.25 E.19033
G1 X188.438 Y103.25 E.02371
M73 Q56 S1
G1 X188.438 Y106.75 E.19033
G1 X188.002 Y106.75 E.02371
G1 X188.002 Y103.25 E.19033
G1 X187.566 Y103.25 E.02371
G1 X187.566 Y106.75 E.19033
G1 X187.13 Y106.75 E.02371
G1 X187.13 Y103.25 E.19033
G1 X186.694 Y103.25 E.02371
G1 X186.694 Y106.75 E.19033
G1 X186.258 Y106.75 E.02371
G1 X186.258 Y103.25 E.19033
G1 X185.822 Y103.25 E.02371
G1 X185.822 Y106.75 E.19033
G1 X185.386 Y106.75 E.02371
G1 X185.386 Y103.25 E.19033
G1 X184.95 Y103.25 E.02371
G1 X184.95 Y106.75 E.19033
G1 X184.514 Y106.75 E.02371
G1 X184.514 Y103.25 E.19033
G1 X184.078 Y103.25 E.02371
G1 X184.078 Y106.75 E.19033
G1 X183.642 Y106.75 E.02371
G1 X183.642 Y103.25 E.19033
G1 X183.206 Y103.25 E.02371
G1 X183.206 Y106.75 E.19033
G1 X182.77 Y106.75 E.02371
G1 X182.77 Y103.25 E.19033
G1 X182.334 Y103.25 E.02371
G1 X182.334 Y106.75 E.19033
G1 X181.898 Y106.75 E.02371
G1 X181.898 Y103.25 E.19033
M73 P57 R1
G1 X181.462 Y103.25 E.02371
G1 X181.462 Y106.75 E.19033
G1 X181.026 Y106.75 E.02371
M73 Q57 S1
G1 X181.026 Y103.25 E.19033
G1 X180.59 Y103.25 E.02371
G1 X180.59 Y106.75 E.19033
G1 X180.154 Y106.75 E.02371
G1 X180.154 Y103.25 E.19033
G1 X179.718 Y103.25 E.02371
G1 X179.718 Y106.75 E.19033
G1 X179.282 Y106.75 E.02371
G1 X179.282 Y103.25 E.19033
G1 X178.846 Y103.25 E.02371
G1 X178.846 Y106.75 E.19033
G1 X178.41 Y106.75 E.02371
G1 X178.41 Y103.25 E.19033
G1 X177.974 Y103.25 E.02371
G1 X177.974 Y106.75 E.19033
G1 X177.538 Y106.75 E.02371
G1 X177.538 Y103.25 E.19033
G1 X177.102 Y103.25 E.02371
G1 X177.102 Y106.75 E.19033
G1 X176.666 Y106.75 E.02371
G1 X176.666 Y103.25 E.19033
G1 X176.23 Y103.25 E.02371
G1 X176.23 Y106.75 E.19033
G1 X175.794 Y106.75 E.02371
G1 X175.794 Y103.25 E.19033
G1 X175.358 Y103.25 E.02371
G1 X175.358 Y106.75 E.19033
G1 X174.922 Y106.75 E.02371
G1 X174.922 Y103.25 E.19033
G1 X174.486 Y103.25 E.02371
G1 X174.486 Y106.75 E.19033
G1 X174.05 Y106.75 E.02371
M73 P58 R1
G1 X174.05 Y103.25 E.19033
G1 X173.614 Y103.25 E.02371
G1 X173.614 Y106.75 E.19033
G1 X173.178 Y106.75 E.02371
M73 Q58 S1
G1 X173.178 Y103.25 E.19033
G1 X172.742 Y103.25 E.02371
G1 X172.742 Y106.75 E.19033
G1 X172.306 Y106.75 E.02371
G1 X172.306 Y103.25 E.19033
G1 X171.87 Y103.25 E.02371
G1 X171.87 Y106.75 E.19033
G1 X171.434 Y106.75 E.02371
G1 X171.434 Y103.25 E.19033
G1 X170.998 Y103.25 E.02371
G1 X170.998 Y106.75 E.19033
G1 X170.562 Y106.75 E.02371
G1 X170.562 Y103.25 E.19033
G1 X170.126 Y103.25 E.02371
G1 X170.126 Y106.75 E.19033
G1 X169.69 Y106.75 E.02371
G1 X169.69 Y103.25 E.19033
G1 X169.254 Y103.25 E.02371
G1 X169.254 Y106.75 E.19033
G1 X168.818 Y106.75 E.02371
G1 X168.818 Y103.25 E.19033
G1 X168.382 Y103.25 E.02371
G1 X168.382 Y106.75 E.19033
G1 X167.946 Y106.75 E.02371
G1 X167.946 Y103.25 E.19033
G1 X167.51 Y103.25 E.02371
G1 X167.51 Y106.75 E.19033
G1 X167.074 Y106.75 E.02371
G1 X167.074 Y103.25 E.19033
G1 X166.638 Y103.25 E.02371
G1 X166.638 Y106.75 E.19033
M73 P59 R1
G1 X166.202 Y106.75 E.02371
G1 X166.202 Y103.25 E.19033
G1 X165.766 Y103.25 E.02371
M73 Q59 S1
G1 X165.766 Y106.75 E.19033
G1 X165.33 Y106.75 E.02371
G1 X165.33 Y103.25 E.19033
G1 X164.894 Y103.25 E.02371
G1 X164.894 Y106.75 E.19033
G1 X164.458 Y106.75 E.02371
G1 X164.458 Y103.25 E.19033
G1 X164.022 Y103.25 E.02371
G1 X164.022 Y106.75 E.19033
G1 X163.586 Y106.75 E.02371
G1 X163.586 Y103.25 E.19033
G1 X163.15 Y103.25 E.02371
G1 X163.15 Y106.75 E.19033
G1 X162.714 Y106.75 E.02371
G1 X162.714 Y103.25 E.19033
G1 X162.278 Y103.25 E.02371
G1 X162.278 Y106.75 E.19033
G1 X161.842 Y106.75 E.02371
G1 X161.842 Y103.25 E.19033
G1 X161.406 Y103.25 E.02371
G1 X161.406 Y106.75 E.19033
G1 X160.97 Y106.75 E.02371
G1 X160.97 Y103.25 E.19033
G1 X160.534 Y103.25 E.02371
G1 X160.534 Y106.75 E.19033
G1 X160.098 Y106.75 E.02371
G1 X160.098 Y103.25 E.19033
G1 X159.662 Y103.25 E.02371
G1 X159.662 Y106.75 E.19033
G1 X159.226 Y106.75 E.02371
G1 X159.226 Y103.25 E.19033
G1 X158.79 Y103.25 E.02371
M73 P60 R1
G1 X158.79 Y106.75 E.19033
G1 X158.354 Y106.75 E.02371
M73 Q60 S1
G1 X158.354 Y103.25 E.19033
G1 X157.918 Y103.25 E.02371
G1 X157.918 Y106.75 E.19033
G1 X157.482 Y106.75 E.02371
G1 X157.482 Y103.25 E.19033
G1 X157.046 Y103.25 E.02371
G1 X157.046 Y106.75 E.19033
G1 X156.61 Y106.75 E.02371
G1 X156.61 Y103.25 E.19033
G1 X156.174 Y103.25 E.02371
G1 X156.174 Y106.75 E.19033
G1 X155.738 Y106.75 E.02371
G1 X155.738 Y103.25 E.19033
G1 X155.302 Y103.25 E.02371
G1 X155.302 Y106.75 E.19033
G1 X154.866 Y106.75 E.02371
G1 X154.866 Y103.25 E.19033
G1 X154.43 Y103.25 E.02371
G1 X154.43 Y106.75 E.19033
G1 X153.994 Y106.75 E.02371
G1 X153.994 Y103.25 E.19033
G1 X153.558 Y103.25 E.02371
G1 X153.558 Y106.75 E.19033
G1 X153.122 Y106.75 E.02371
G1 X153.122 Y103.25 E.19033
G1 X152.686 Y103.25 E.02371
G1 X152.686 Y106.75 E.19033
G1 X152.25 Y106.75 E.02371
G1 X152.25 Y103.25 E.19033
G1 X151.814 Y103.25 E.02371
G1 X151.814 Y106.75 E.19033
G1 X151.378 Y106.75 E.02371
G1 X151.378 Y103.25 E.19033
M73 P61 R1
G1 X150.942 Y103.25 E.02371
G1 X150.942 Y106.75 E.19033
M73 Q61 S1
G1 X150.506 Y106.75 E.02371
G1 X150.506 Y103.25 E.19033
G1 X150.07 Y103.25 E.02371
G1 X150.07 Y106.75 E.19033
G1 X149.634 Y106.75 E.02371
G1 X149.634 Y103.25 E.19033
G1 X149.198 Y103.25 E.02371
G1 X149.198 Y106.75 E.19033
G1 X148.762 Y106.75 E.02371
G1 X148.762 Y103.25 E.19033
G1 X148.326 Y103.25 E.02371
G1 X148.326 Y106.75 E.19033
G1 X147.89 Y106.75 E.02371
G1 X147.89 Y103.25 E.19033
G1 X147.454 Y103.25 E.02371
G1 X147.454 Y106.75 E.19033
G1 X147.018 Y106.75 E.02371
G1 X147.018 Y103.25 E.19033
G1 X146.582 Y103.25 E.02371
G1 X146.582 Y106.75 E.19033
G1 X146.146 Y106.75 E.02371
G1 X146.146 Y103.25 E.19033
G1 X145.71 Y103.25 E.02371
G1 X145.71 Y106.75 E.19033
G1 X145.274 Y106.75 E.02371
G1 X145.274 Y103.25 E.19033
G1 X144.838 Y103.25 E.02371
G1 X144.838 Y106.75 E.19033
G1 X144.402 Y106.75 E.02371
G1 X144.402 Y103.25 E.19033
G1 X143.966 Y103.25 E.02371
G1 X143.966 Y106.75 E.19033
G1 X143.53 Y106.75 E.02371
M73 P62 R1
G1 X143.53 Y103.25 E.19033
G1 X143.094 Y103.25 E.02371
M73 Q62 S1
G1 X143.094 Y106.75 E.19033
G1 X142.658 Y106.75 E.02371
G1 X142.658 Y103.25 E.19033
G1 X142.222 Y103.25 E.02371
G1 X142.222 Y106.75 E.19033
G1 X141.786 Y106.75 E.02371
G1 X141.786 Y103.25 E.19033
G1 X141.35 Y103.25 E.02371
G1 X141.35 Y106.75 E.19033
G1 X140.914 Y106.75 E.02371
G1 X140.914 Y103.25 E.19033
G1 X140.478 Y103.25 E.02371
G1 X140.478 Y106.75 E.19033
G1 X140.042 Y106.75 E.02371
G1 X140.042 Y103.25 E.19033
G1 X139.606 Y103.25 E.02371
G1 X139.606 Y106.75 E.19033
G1 X139.17 Y106.75 E.02371
G1 X139.17 Y103.25 E.19033
G1 X138.734 Y103.25 E.02371
G1 X138.734 Y106.75 E.19033
G1 X138.298 Y106.75 E.02371
G1 X138.298 Y103.25 E.19033
G1 X137.862 Y103.25 E.02371
G1 X137.862 Y106.75 E.19033
G1 X137.426 Y106.75 E.02371
G1 X137.426 Y103.25 E.19033
G1 X136.99 Y103.25 E.02371
G1 X136.99 Y106.75 E.19033
G1 X136.554 Y106.75 E.02371
G1 X136.554 Y103.25 E.19033
G1 X136.118 Y103.25 E.02371
G1 X136.118 Y106.75 E.19033
M73 P63 R1
G1 X135.682 Y106.75 E.02371
M73 Q63 S1
G1 X135.682 Y103.25 E.19033
G1 X135.246 Y103.25 E.02371
G1 X135.246 Y106.75 E.19033
G1 X134.81 Y106.75 E.02371
G1 X134.81 Y103.25 E.19033
G1 X134.374 Y103.25 E.02371
G1 X134.374 Y106.75 E.19033
G1 X133.938 Y106.75 E.02371
G1 X133.938 Y103.25 E.19033
G1 X133.502 Y103.25 E.02371
G1 X133.502 Y106.75 E.19033
G1 X133.066 Y106.75 E.02371
G1 X133.066 Y103.25 E.19033
G1 X132.63 Y103.25 E.02371
G1 X132.63 Y106.75 E.19033
G1 X132.194 Y106.75 E.02371
G1 X132.194 Y103.25 E.19033
G1 X131.758 Y103.25 E.02371
G1 X131.758 Y106.75 E.19033
G1 X131.322 Y106.75 E.02371
G1 X131.322 Y103.25 E.19033
G1 X130.886 Y103.25 E.02371
G1 X130.886 Y106.75 E.19033
G1 X130.45 Y106.75 E.02371
G1 X130.45 Y103.25 E.19033
G1 X130.014 Y103.25 E.02371
G1 X130.014 Y106.75 E.19033
G1 X129.578 Y106.75 E.02371
G1 X129.578 Y103.25 E.19033
G1 X129.142 Y103.25 E.02371
G1 X129.142 Y106.75 E.19033
G1 X128.706 Y106.75 E.02371
G1 X128.706 Y103.25 E.19033
G1 X128.27 Y103.25 E.02371
M73 P64 R1
G1 X128.27 Y106.75 E.19033
M73 Q64 S1
G1 X127.834 Y106.75 E.02371
G1 X127.834 Y103.25 E.19033
G1 X127.398 Y103.25 E.02371
G1 X127.398 Y106.75 E.19033
G1 X126.962 Y106.75 E.02371
G1 X126.962 Y103.25 E.19033
G1 X126.526 Y103.25 E.02371
G1 X126.526 Y106.75 E.19033
G1 X126.09 Y106.75 E.02371
G1 X126.09 Y103.25 E.19033
G1 X125.654 Y103.25 E.02371
G1 X125.654 Y106.75 E.19033
G1 X125.218 Y106.75 E.02371
G1 X125.218 Y103.25 E.19033
G1 X124.782 Y103.25 E.02371
G1 X124.782 Y106.75 E.19033
G1 X124.346 Y106.75 E.02371
G1 X124.346 Y103.25 E.19033
G1 X123.91 Y103.25 E.02371
G1 X123.91 Y106.75 E.19033
G1 X123.474 Y106.75 E.02371
G1 X123.474 Y103.25 E.19033
G1 X123.038 Y103.25 E.02371
G1 X123.038 Y106.75 E.19033
G1 X122.602 Y106.75 E.02371
G1 X122.602 Y103.25 E.19033
G1 X122.166 Y103.25 E.02371
G1 X122.166 Y106.75 E.19033
G1 X121.73 Y106.75 E.02371
G1 X121.73 Y103.25 E.19033
G1 X121.294 Y103.25 E.02371
G1 X121.294 Y106.75 E.19033
G1 X120.858 Y106.75 E.02371
G1 X120.858 Y103.25 E.19033
